X:1
T:Rains of Castamere
T:Rains of Castamere
T:For Low Brass Trio
C:arr. Paula Batoon
Z:George R.R. Martin
%%score 1 2 3
L:1/8
Q:1/4=60
M:4/4
K:F
V:1 treble transpose=-7 nm="Horn in F" snm="F Hn."
V:2 bass nm="Euphonium" snm="Euph."
V:3 bass nm="Tuba" snm="Tba."
V:1
[K:C] z | z8 | z8 | z8 | z8 | z8 | z8 | z8 | z C4 z2 z |!ff! E, C3 E, B,3 | E, C2 D2 B,3 | %11
 E, D2 C2 B,2 A,- | A, B,4 z z2 | B, E3 F D3 | G, E2 F2 D3 | G, F2 E2 D2 C- | C A,7- | A, z4 z2 z | %18
 z z4 z2 z | z!mp! D2 C2 B,3- | B, A,4 G,3- | G, B,4 C3- | C C4 B,3- | B, C2 D2 B,3- | B, D4 C3 | %25
 z B,4 A,3 | z B,6 z | z G2 F2 E3- | E E3 C(GFD | E) C4 z2 z | z!p!!>(! B,C A,4 E- | %31
 E!>)! E2 D2 A,3 | B, C3 A,(EDB, | C)!pp! A,6 z | z z z2 z4 |] %35
V:2
 z | z8 | z8 | z8 | z8 | z8 | z8 | z8 | z D,4 z2 z | z!f! D,4 A,,3- | A,, (F,2 G,2 E,2 D,-) | %11
 D, (A,,2 B,,2 C,2 D,-) | D, E,4 z2 z | z D,4 C,3- | C, B,,2 C,2 D,3- | D, B,4 A,3- | A, A,7- | %17
 A, z2 z4!ff! A,,- | A,,E,F, D,4 F,- | F,F,E, A,,4 z | A,,D,E, C,4 E,- | E,E, D,3 z2 z | %22
 A,,E,F, D,4 A,- | A, A,2 G,2 D,3 | E, F,3 D, E,3 | C, D,4 z2 A,,- | A,,E,F, D,4 A,- | %27
 A, A,2 G,2 D,3 | E, F,3 D,(A,G,E, | F,) D,4 z2 z | z z4 z2 z | z z4 z2 z | z z4 z2 z | z z4 z2 z | %34
 z z z2 z4 |] %35
V:3
 A,,, | F,,3 A,,, E,,3 A,,, | F,,2 G,,2 E,,3 A,,, | G,,2 F,,2 E,,2 D,,2 | E,,6 z2 | %5
 E,, A,,3 B,, G,,3 | C,, A,,2 B,,2 G,,3 | C,, B,,2 A,,2 G,,2 F,,- | F,, D,,4 z2 z | %9
 A,, F,,3 A,,, E,,3 | A,,, A,,,2 E,,,2 A,,,3- | A,,, A,,6 D,,- | D,, A,,4 z2 z | z D,,4 C,,3- | %14
 C,, B,,,4 A,,,3- | A,,, B,,4 A,,2 F,,- | F,, D,,7- | D,, z4 z2 z | z F,,4 E,,3- | %19
 E,, D,,2 E,,2 F,,3- | F,, B,,7- | B,, A,,6 z | E,, F,,4 E,,3- | E,, D,,2 E,,2 F,,3 | %24
 z F,,2 z2 E,,2 z | z D,,4 C,,3- | C,,E,,D,, D,,4 A,,- | A,, C,,2 B,,,2 F,,,3- | %28
 F,,, F,,3 D,,(A,,G,,E,, | F,,) D,,4 z2 A,,,- | A,,,!mf!E,,F,, D,,4 A,,- | A,, A,,2 G,,2 D,,3 | %32
 E,, F,,3 D,,(A,,G,,E,, | F,,) D,,6 z | z z z2 z4 |] %35

